;FLAVOR:Marlin
;TIME:4891
;Filament used: 3.78785m
;Layer height: 0.2
;MINX:71.5
;MINY:49
;MINZ:0.3
;MAXX:153.5
;MAXY:171
;MAXZ:1.5
;Generated with Cura_SteamEngine 4.12.1
M82 ;absolute extrusion mode
; Ender 3 Custom Start G-code



M140 S60 ; Set Heat Bed temperature
M190 S60 ; Wait for Heat Bed temperature
M104 S160; start warming extruder to 160
G28 ; Home all axes
;M420 S1 ; enable bed leveling

G29
G92 E0 ; Reset Extruder
M104 S210 ; Set Extruder temperature
G1 X0.1 Y20 Z1 F5000.0 ; Move to start position
M109 S210 ; Wait for Extruder temperature
; G1 Z1.0 F3000 ; Move Z Axis up little to prevent scratching of Heat Bed
G1 X0.1 Y200.0 Z0.35 F1500.0 E15 ; Draw the first line
G1 X0.4 Y200.0 Z0.35 F5000.0 ; Move to side a little
G1 X0.4 Y20 Z0.35 F1500.0 E30 ; Draw the second line
G92 E0 ; Reset Extruder
G1 Z2.0 F3000 ; Move Z Axis up little to prevent scratching of Heat Bed
; End of custom start GCode
G92 E0
G92 E0
G1 F2400 E-4
;LAYER_COUNT:7
;LAYER:0
M107
G0 F6000 X73.496 Y53.703 Z0.3
;TYPE:SKIRT
G1 F2400 E0
G1 F1200 X74.066 Y52.958 E0.0468
G1 X74.698 Y52.264 E0.09363
G1 X75.386 Y51.627 E0.14041
G1 X76.126 Y51.051 E0.18719
G1 X76.912 Y50.539 E0.23399
G1 X77.739 Y50.097 E0.28077
G1 X78.601 Y49.727 E0.32757
G1 X79.491 Y49.431 E0.37437
G1 X80.403 Y49.213 E0.42115
G1 X81.33 Y49.072 E0.46793
G1 X82.201 Y49.013 E0.51148
G1 X82.522 Y49.004 E0.5275
G1 X82.83 Y49 E0.54287
G1 X141.793 Y49 E3.48455
G1 X142.649 Y49.011 E3.52726
G1 X143.585 Y49.065 E3.57403
G1 X144.513 Y49.197 E3.62079
G1 X145.427 Y49.409 E3.6676
G1 X146.319 Y49.698 E3.71438
G1 X147.184 Y50.061 E3.76119
G1 X148.014 Y50.497 E3.80796
G1 X148.805 Y51.002 E3.85478
G1 X149.549 Y51.573 E3.90157
G1 X150.242 Y52.205 E3.94836
G1 X150.879 Y52.893 E3.99514
G1 X151.454 Y53.634 E4.04193
G1 X151.965 Y54.42 E4.08871
G1 X152.407 Y55.248 E4.13553
G1 X152.776 Y56.11 E4.18231
G1 X153.071 Y57 E4.22909
G1 X153.289 Y57.912 E4.27587
G1 X153.429 Y58.84 E4.32269
G1 X153.487 Y59.701 E4.36575
G1 X153.496 Y60.021 E4.38172
G1 X153.5 Y60.33 E4.39713
G1 X153.499 Y159.4 E9.33976
G1 X153.49 Y160.127 E9.37603
G1 X153.439 Y161.064 E9.42285
G1 X153.307 Y161.992 E9.46961
G1 X153.098 Y162.906 E9.51639
G1 X152.811 Y163.799 E9.56318
G1 X152.449 Y164.665 E9.61001
G1 X152.015 Y165.496 E9.65678
G1 X151.511 Y166.287 E9.70358
G1 X150.942 Y167.032 E9.75035
G1 X150.311 Y167.727 E9.79718
G1 X149.624 Y168.365 E9.84395
G1 X148.885 Y168.942 E9.89073
G1 X148.099 Y169.454 E9.93753
G1 X147.273 Y169.897 E9.98429
G1 X146.411 Y170.269 E10.03113
G1 X145.522 Y170.565 E10.07788
G1 X144.61 Y170.785 E10.12468
G1 X143.683 Y170.926 E10.17146
G1 X142.799 Y170.987 E10.21567
G1 X142.478 Y170.996 E10.23169
G1 X142.17 Y171 E10.24706
G1 X83.065 Y170.999 E13.19582
G1 X82.367 Y170.99 E13.23064
G1 X81.431 Y170.938 E13.27741
G1 X80.502 Y170.806 E13.32423
G1 X79.588 Y170.596 E13.37101
G1 X78.695 Y170.309 E13.41781
G1 X77.83 Y169.946 E13.46461
G1 X76.999 Y169.512 E13.51138
G1 X76.208 Y169.008 E13.55818
G1 X75.463 Y168.438 E13.60498
G1 X74.769 Y167.807 E13.65177
G1 X74.132 Y167.12 E13.69851
G1 X73.555 Y166.38 E13.74533
G1 X73.043 Y165.594 E13.79213
G1 X72.6 Y164.767 E13.83893
G1 X72.229 Y163.906 E13.88571
G1 X71.933 Y163.016 E13.9325
G1 X71.714 Y162.104 E13.97929
G1 X71.573 Y161.177 E14.02607
G1 X71.513 Y160.288 E14.07053
G1 X71.504 Y159.955 E14.08715
G1 X71.5 Y159.658 E14.10197
G1 X71.501 Y60.525 E19.04773
G1 X71.51 Y59.86 E19.08091
G1 X71.563 Y58.924 E19.12768
G1 X71.695 Y57.995 E19.1745
G1 X71.906 Y57.081 E19.2213
G1 X72.194 Y56.189 E19.26806
G1 X72.557 Y55.324 E19.31486
G1 X72.992 Y54.493 E19.36166
G1 X73.496 Y53.703 E19.40841
G0 F6000 X73.892 Y53.835
G1 F1200 X74.461 Y53.111 E19.45435
G1 X75.089 Y52.439 E19.50024
G1 X75.774 Y51.823 E19.5462
G1 X76.51 Y51.27 E19.59213
G1 X77.291 Y50.782 E19.63807
G1 X78.111 Y50.364 E19.68399
G1 X78.965 Y50.019 E19.72994
G1 X79.845 Y49.749 E19.77586
G1 X80.745 Y49.557 E19.82178
G1 X81.659 Y49.443 E19.86773
G1 X82.212 Y49.413 E19.89536
G1 X82.533 Y49.404 E19.91138
G1 X82.83 Y49.4 E19.9262
G1 X141.793 Y49.4 E22.86787
G1 X142.643 Y49.411 E22.91028
G1 X143.562 Y49.464 E22.95621
G1 X144.473 Y49.597 E23.00214
G1 X145.369 Y49.808 E23.04807
G1 X146.243 Y50.096 E23.09398
G1 X147.09 Y50.459 E23.13995
G1 X147.901 Y50.894 E23.18586
G1 X148.671 Y51.398 E23.23178
G1 X149.395 Y51.967 E23.27772
G1 X150.067 Y52.597 E23.32367
G1 X150.682 Y53.282 E23.3696
G1 X151.235 Y54.018 E23.41553
G1 X151.722 Y54.799 E23.46145
G1 X152.139 Y55.62 E23.50739
G1 X152.484 Y56.474 E23.55334
G1 X152.753 Y57.354 E23.59925
G1 X152.945 Y58.255 E23.64521
G1 X153.058 Y59.168 E23.69111
G1 X153.087 Y59.712 E23.71829
G1 X153.096 Y60.032 E23.73426
G1 X153.1 Y60.33 E23.74913
G1 X153.099 Y159.395 E28.6915
G1 X153.09 Y160.122 E28.72777
G1 X153.039 Y161.041 E28.77369
G1 X152.908 Y161.953 E28.81966
G1 X152.698 Y162.849 E28.86557
G1 X152.412 Y163.724 E28.9115
G1 X152.051 Y164.571 E28.95743
G1 X151.617 Y165.383 E29.00337
G1 X151.115 Y166.155 E29.04931
G1 X150.547 Y166.88 E29.09526
G1 X149.919 Y167.553 E29.14118
G1 X149.235 Y168.169 E29.18711
G1 X148.5 Y168.723 E29.23302
G1 X147.72 Y169.212 E29.27895
G1 X146.9 Y169.631 E29.3249
G1 X146.047 Y169.977 E29.37082
G1 X145.167 Y170.248 E29.41676
G1 X144.267 Y170.441 E29.46268
G1 X143.353 Y170.556 E29.50864
G1 X142.788 Y170.587 E29.53687
G1 X142.467 Y170.596 E29.55289
G1 X142.17 Y170.6 E29.56771
G1 X83.07 Y170.599 E32.51622
G1 X82.372 Y170.59 E32.55105
G1 X81.453 Y170.538 E32.59697
G1 X80.542 Y170.407 E32.64289
G1 X79.646 Y170.197 E32.6888
G1 X78.771 Y169.91 E32.73474
G1 X77.924 Y169.548 E32.7807
G1 X77.112 Y169.114 E32.82663
G1 X76.341 Y168.612 E32.87253
G1 X75.616 Y168.044 E32.91848
G1 X74.943 Y167.415 E32.96444
G1 X74.328 Y166.731 E33.01033
G1 X73.774 Y165.996 E33.05625
G1 X73.286 Y165.215 E33.10219
G1 X72.867 Y164.395 E33.14813
G1 X72.521 Y163.542 E33.19406
G1 X72.251 Y162.662 E33.23998
G1 X72.058 Y161.761 E33.28595
G1 X71.944 Y160.848 E33.33185
G1 X71.913 Y160.277 E33.36038
G1 X71.904 Y159.944 E33.377
G1 X71.9 Y159.658 E33.39127
G1 X71.901 Y60.531 E38.33674
G1 X71.91 Y59.866 E38.36992
G1 X71.962 Y58.946 E38.41589
G1 X72.094 Y58.035 E38.46182
G1 X72.305 Y57.139 E38.50774
G1 X72.592 Y56.264 E38.55368
G1 X72.955 Y55.418 E38.59961
G1 X73.389 Y54.606 E38.64555
G1 X73.892 Y53.835 E38.69147
G0 F6000 X74.288 Y53.971
G1 F1200 X74.855 Y53.267 E38.73657
G1 X75.481 Y52.617 E38.78159
G1 X76.162 Y52.024 E38.82664
G1 X76.894 Y51.494 E38.87173
G1 X77.669 Y51.031 E38.91677
G1 X78.482 Y50.638 E38.96182
G1 X79.327 Y50.318 E39.0069
G1 X80.196 Y50.075 E39.05192
G1 X81.084 Y49.909 E39.09699
G1 X82.223 Y49.813 E39.15401
G1 X82.544 Y49.804 E39.17004
G1 X82.83 Y49.8 E39.18431
G1 X141.793 Y49.8 E42.12598
G1 X142.637 Y49.811 E42.16809
G1 X143.539 Y49.864 E42.21317
G1 X144.432 Y49.996 E42.25821
G1 X145.31 Y50.207 E42.30326
G1 X146.166 Y50.495 E42.34832
G1 X146.993 Y50.857 E42.39335
G1 X147.785 Y51.292 E42.43844
G1 X148.536 Y51.794 E42.4835
G1 X149.239 Y52.361 E42.52856
G1 X149.889 Y52.988 E42.57362
G1 X150.481 Y53.67 E42.61867
G1 X151.011 Y54.401 E42.66372
G1 X151.473 Y55.177 E42.70878
G1 X151.866 Y55.99 E42.75383
G1 X152.184 Y56.835 E42.79887
G1 X152.427 Y57.705 E42.84394
G1 X152.592 Y58.593 E42.889
G1 X152.687 Y59.723 E42.94557
G1 X152.696 Y60.043 E42.96154
G1 X152.7 Y60.33 E42.97586
G1 X152.699 Y159.39 E47.91799
G1 X152.69 Y160.117 E47.95426
G1 X152.639 Y161.019 E47.99933
G1 X152.508 Y161.913 E48.04441
G1 X152.299 Y162.791 E48.08944
G1 X152.013 Y163.648 E48.13451
G1 X151.652 Y164.476 E48.17958
G1 X151.22 Y165.268 E48.22459
G1 X150.719 Y166.02 E48.26967
G1 X150.153 Y166.724 E48.31473
G1 X149.528 Y167.375 E48.35976
G1 X148.847 Y167.969 E48.40484
G1 X148.116 Y168.5 E48.44992
G1 X147.342 Y168.964 E48.49494
G1 X146.529 Y169.358 E48.54001
G1 X145.685 Y169.678 E48.58505
G1 X144.815 Y169.923 E48.63014
G1 X143.928 Y170.089 E48.67516
G1 X142.777 Y170.187 E48.73279
G1 X142.456 Y170.196 E48.74881
G1 X142.17 Y170.2 E48.76308
G1 X83.075 Y170.199 E51.71134
G1 X82.377 Y170.19 E51.74617
G1 X81.476 Y170.139 E51.79119
G1 X80.582 Y170.007 E51.83628
G1 X79.704 Y169.798 E51.88131
G1 X78.847 Y169.511 E51.92639
G1 X78.02 Y169.15 E51.97141
G1 X77.227 Y168.717 E52.01649
G1 X76.476 Y168.216 E52.06153
G1 X75.772 Y167.65 E52.1066
G1 X75.121 Y167.024 E52.15165
G1 X74.528 Y166.343 E52.19671
G1 X73.998 Y165.612 E52.24175
G1 X73.534 Y164.837 E52.28682
G1 X73.14 Y164.024 E52.33189
G1 X72.82 Y163.18 E52.37692
G1 X72.576 Y162.31 E52.422
G1 X72.41 Y161.422 E52.46707
G1 X72.313 Y160.267 E52.5249
G1 X72.304 Y159.934 E52.54152
G1 X72.3 Y159.658 E52.55529
G1 X72.301 Y60.536 E57.5005
G1 X72.31 Y59.871 E57.53368
G1 X72.362 Y58.969 E57.57876
G1 X72.494 Y58.076 E57.6238
G1 X72.704 Y57.198 E57.66884
G1 X72.991 Y56.341 E57.71393
G1 X73.353 Y55.514 E57.75896
G1 X73.786 Y54.722 E57.804
G1 X74.288 Y53.971 E57.84906
G1 F2400 E53.84906
;MESH:ultrasonic_tank_monitor - Board.step-1 Open CASCADE STEP translator 6.8 1.1.1.step-1.STL
G0 F6000 X81.835 Y64.278
G0 X83.71 Y64.278
G0 X83.697 Y155.759
G0 X86.906 Y155.325
G0 X86.746 Y158.8
G0 X138.254 Y158.8
G0 X138.95 Y158.511
;TYPE:WALL-INNER
G1 F2400 E57.84906
G1 F1200 X139.5 Y158.607 E57.87692
G1 X140.05 Y158.511 E57.90477
G1 X140.533 Y158.231 E57.93263
G1 X140.892 Y157.803 E57.9605
G1 X141.083 Y157.28 E57.98827
G1 X141.083 Y156.72 E58.01621
G1 X140.892 Y156.197 E58.04399
G1 X140.533 Y155.769 E58.07186
G1 X140.05 Y155.489 E58.09971
G1 X139.5 Y155.393 E58.12757
G1 X138.95 Y155.489 E58.15542
G1 X138.467 Y155.769 E58.18328
G1 X138.108 Y156.197 E58.21115
G1 X137.917 Y156.72 E58.23892
G1 X137.917 Y157.28 E58.26686
G1 X138.108 Y157.803 E58.29464
G1 X138.467 Y158.231 E58.32251
G1 X138.95 Y158.511 E58.35036
G0 F6000 X139.089 Y158.129
;TYPE:WALL-OUTER
G1 F1200 X139.5 Y158.201 E58.37118
G1 X139.911 Y158.129 E58.392
G1 X140.272 Y157.92 E58.41281
G1 X140.54 Y157.6 E58.43363
G1 X140.683 Y157.209 E58.45441
G1 X140.683 Y156.791 E58.47526
G1 X140.54 Y156.4 E58.49603
G1 X140.272 Y156.08 E58.51685
G1 X139.911 Y155.871 E58.53767
G1 X139.5 Y155.799 E58.55848
G1 X139.089 Y155.871 E58.5793
G1 X138.728 Y156.08 E58.60011
G1 X138.46 Y156.4 E58.62093
G1 X138.317 Y156.791 E58.64171
G1 X138.317 Y157.209 E58.66256
G1 X138.46 Y157.6 E58.68333
G1 X138.728 Y157.92 E58.70415
G1 X139.089 Y158.129 E58.72497
G0 F6000 X138.939 Y158.542
G1 F2400 E54.72497
G0 F6000 X138.254 Y158.8
G0 X86.746 Y158.8
G0 X86.05 Y158.511
;TYPE:WALL-INNER
G1 F2400 E58.72497
G1 F1200 X86.533 Y158.231 E58.75282
G1 X86.892 Y157.803 E58.78069
G1 X87.083 Y157.28 E58.80847
G1 X87.083 Y156.72 E58.83641
G1 X86.892 Y156.197 E58.86418
G1 X86.533 Y155.769 E58.89205
G1 X86.05 Y155.489 E58.91991
G1 X85.5 Y155.393 E58.94776
G1 X84.95 Y155.489 E58.97562
G1 X84.467 Y155.769 E59.00347
G1 X84.108 Y156.197 E59.03134
G1 X83.917 Y156.72 E59.05912
G1 X83.917 Y157.28 E59.08706
G1 X84.108 Y157.803 E59.11483
G1 X84.467 Y158.231 E59.1427
G1 X84.95 Y158.511 E59.17056
G1 X85.5 Y158.607 E59.19841
G1 X86.05 Y158.511 E59.22627
G0 F6000 X85.911 Y158.129
;TYPE:WALL-OUTER
G1 F1200 X86.272 Y157.92 E59.24708
G1 X86.54 Y157.6 E59.2679
G1 X86.683 Y157.209 E59.28867
G1 X86.683 Y156.791 E59.30953
G1 X86.54 Y156.4 E59.3303
G1 X86.272 Y156.08 E59.35112
G1 X85.911 Y155.871 E59.37193
G1 X85.5 Y155.799 E59.39275
G1 X85.089 Y155.871 E59.41357
G1 X84.728 Y156.08 E59.43438
G1 X84.46 Y156.4 E59.4552
G1 X84.317 Y156.791 E59.47597
G1 X84.317 Y157.209 E59.49683
G1 X84.46 Y157.6 E59.5176
G1 X84.728 Y157.92 E59.53842
G1 X85.089 Y158.129 E59.55923
G1 X85.5 Y158.201 E59.58005
G1 X85.911 Y158.129 E59.60087
G0 F6000 X86.061 Y158.542
G1 F2400 E55.60087
G0 F6000 X87.693 Y156.612
G0 X85.828 Y156.941
G0 X101.587 Y145.435
G0 X100.383 Y146.87
G0 X101.93 Y147.24
;TYPE:WALL-INNER
G1 F2400 E59.60087
G1 F1200 X102.687 Y147.108 E59.6392
G1 X103.352 Y146.722 E59.67756
G1 X103.847 Y146.134 E59.71591
G1 X104.11 Y145.412 E59.75425
G1 X104.11 Y144.642 E59.79266
G1 X103.847 Y143.92 E59.831
G1 X103.352 Y143.332 E59.86934
G1 X102.687 Y142.946 E59.90771
G1 X101.93 Y142.814 E59.94604
G1 X101.173 Y142.946 E59.98438
G1 X100.508 Y143.332 E60.02274
G1 X100.013 Y143.92 E60.06109
G1 X99.75 Y144.642 E60.09942
G1 X99.75 Y145.412 E60.13784
G1 X100.013 Y146.134 E60.17617
G1 X100.508 Y146.722 E60.21452
G1 X101.173 Y147.108 E60.25288
G1 X101.93 Y147.24 E60.29122
G0 F6000 X101.93 Y146.834
G1 F1200 X102.548 Y146.726 E60.32252
G1 X103.091 Y146.411 E60.35384
G1 X103.495 Y145.931 E60.38514
G1 X103.71 Y145.341 E60.41647
G1 X103.71 Y144.713 E60.4478
G1 X103.495 Y144.123 E60.47913
G1 X103.091 Y143.643 E60.51043
G1 X102.548 Y143.328 E60.54174
G1 X101.93 Y143.22 E60.57304
G1 X101.312 Y143.328 E60.60434
G1 X100.769 Y143.643 E60.63566
G1 X100.365 Y144.123 E60.66696
G1 X100.15 Y144.713 E60.69829
G1 X100.15 Y145.341 E60.72962
G1 X100.365 Y145.931 E60.76095
G1 X100.769 Y146.411 E60.79225
G1 X101.312 Y146.726 E60.82357
G1 X101.93 Y146.834 E60.85487
G0 F6000 X101.93 Y146.428
;TYPE:WALL-OUTER
G1 F1200 X102.409 Y146.344 E60.87913
G1 X102.83 Y146.1 E60.90341
G1 X103.143 Y145.728 E60.92766
G1 X103.31 Y145.27 E60.95198
G1 X103.31 Y144.784 E60.97623
G1 X103.143 Y144.326 E61.00055
G1 X102.83 Y143.954 E61.02481
G1 X102.409 Y143.71 E61.04908
G1 X101.93 Y143.626 E61.07335
G1 X101.451 Y143.71 E61.09761
G1 X101.03 Y143.954 E61.12188
G1 X100.717 Y144.326 E61.14614
G1 X100.55 Y144.784 E61.17046
G1 X100.55 Y145.27 E61.19471
G1 X100.717 Y145.728 E61.21903
G1 X101.03 Y146.1 E61.24328
G1 X101.451 Y146.344 E61.26756
G1 X101.93 Y146.428 E61.29182
G0 F6000 X101.93 Y146.868
G1 F2400 E57.29182
G0 F6000 X100.94 Y146.208
G0 X100.595 Y145.799
G0 X100.411 Y145.294
G0 X100.411 Y144.862
G0 X101.106 Y142.764
G0 X101.747 Y144.526
G0 X85.616 Y63.313
G0 X86.262 Y65.093
G0 X86.05 Y64.511
;TYPE:WALL-INNER
G1 F2400 E61.29182
G1 F1200 X86.533 Y64.231 E61.31967
G1 X86.892 Y63.803 E61.34754
G1 X87.083 Y63.28 E61.37532
G1 X87.083 Y62.72 E61.40326
G1 X86.892 Y62.197 E61.43104
G1 X86.533 Y61.769 E61.45891
G1 X86.05 Y61.489 E61.48676
G1 X85.5 Y61.393 E61.51462
G1 X84.95 Y61.489 E61.54247
G1 X84.467 Y61.769 E61.57033
G1 X84.108 Y62.197 E61.5982
G1 X83.917 Y62.72 E61.62597
G1 X83.917 Y63.28 E61.65391
G1 X84.108 Y63.803 E61.68169
G1 X84.467 Y64.231 E61.70956
G1 X84.95 Y64.511 E61.73741
G1 X85.5 Y64.607 E61.76527
G1 X86.05 Y64.511 E61.79312
G0 F6000 X85.911 Y64.129
;TYPE:WALL-OUTER
G1 F1200 X86.272 Y63.92 E61.81393
G1 X86.54 Y63.6 E61.83476
G1 X86.683 Y63.209 E61.85553
G1 X86.683 Y62.791 E61.87638
G1 X86.54 Y62.4 E61.89715
G1 X86.272 Y62.08 E61.91798
G1 X85.911 Y61.871 E61.93879
G1 X85.5 Y61.799 E61.95961
G1 X85.089 Y61.871 E61.98042
G1 X84.728 Y62.08 E62.00123
G1 X84.46 Y62.4 E62.02206
G1 X84.317 Y62.791 E62.04283
G1 X84.317 Y63.209 E62.06368
G1 X84.46 Y63.6 E62.08445
G1 X84.728 Y63.92 E62.10528
G1 X85.089 Y64.129 E62.12609
G1 X85.5 Y64.201 E62.14691
G1 X85.911 Y64.129 E62.16772
G0 F6000 X86.061 Y64.542
G1 F2400 E58.16772
G0 F6000 X85.5 Y65.226
G0 X85.47 Y70.565
G0 X86.247 Y71.811
G0 X86.348 Y72.193
G0 X85.89 Y73.604
;TYPE:WALL-INNER
G1 F2400 E62.16772
G1 F1200 X86.498 Y73.308 E62.20146
G1 X86.582 Y73.205 E62.20809
G1 X86.879 Y73.445 E62.22714
G1 X87.338 Y73.611 E62.25149
G1 X87.89 Y73.604 E62.27903
G1 X88.498 Y73.308 E62.31277
G1 X88.857 Y72.865 E62.34122
G1 X89.034 Y72.19 E62.37603
G1 X88.848 Y71.494 E62.41198
G1 X88.466 Y71.052 E62.44112
G1 X87.892 Y70.789 E62.47262
G1 X87.49 Y70.758 E62.49274
G1 X86.883 Y70.926 E62.52416
G1 X86.58 Y71.184 E62.54401
G1 X86.466 Y71.052 E62.55271
G1 X85.892 Y70.789 E62.58421
G1 X85.49 Y70.758 E62.60433
G1 X84.883 Y70.926 E62.63575
G1 X84.44 Y71.303 E62.66477
G1 X84.161 Y71.916 E62.69837
G1 X84.168 Y72.501 E62.72756
G1 X84.464 Y73.11 E62.76134
G1 X84.879 Y73.445 E62.78795
G1 X85.338 Y73.611 E62.8123
G1 X85.89 Y73.604 E62.83984
G0 F6000 X85.795 Y73.205
G1 F1200 X86.243 Y72.987 E62.8647
G1 X86.492 Y72.68 E62.88442
G1 X86.567 Y72.394 E62.89917
G1 X86.567 Y72.407
G1 X86.785 Y72.855 E62.91716
G1 X87.078 Y73.092 E62.93596
G1 X87.405 Y73.21 E62.9533
G1 X87.795 Y73.205 E62.97276
G1 X88.243 Y72.987 E62.99762
G1 X88.492 Y72.68 E63.01734
G1 X88.62 Y72.191 E63.04256
G1 X88.485 Y71.686 E63.06863
G1 X88.22 Y71.379 E63.08887
G1 X87.79 Y71.182 E63.11246
G1 X87.529 Y71.162 E63.12552
