;FLAVOR:Marlin
;TIME:5035
;Filament used: 3.84633m
;Layer height: 0.2
;MINX:71.5
;MINY:49
;MINZ:0.3
;MAXX:153.5
;MAXY:171
;MAXZ:3.9
;Generated with Cura_SteamEngine 4.12.1
M82 ;absolute extrusion mode
; Ender 3 Custom Start G-code



M140 S60 ; Set Heat Bed temperature
M190 S60 ; Wait for Heat Bed temperature
M104 S160; start warming extruder to 160
G28 ; Home all axes
;M420 S1 ; enable bed leveling

G29
G92 E0 ; Reset Extruder
M104 S210 ; Set Extruder temperature
G1 X0.1 Y20 Z1 F5000.0 ; Move to start position
M109 S210 ; Wait for Extruder temperature
; G1 Z1.0 F3000 ; Move Z Axis up little to prevent scratching of Heat Bed
G1 X0.1 Y200.0 Z0.35 F1500.0 E15 ; Draw the first line
G1 X0.4 Y200.0 Z0.35 F5000.0 ; Move to side a little
G1 X0.4 Y20 Z0.35 F1500.0 E30 ; Draw the second line
G92 E0 ; Reset Extruder
G1 Z2.0 F3000 ; Move Z Axis up little to prevent scratching of Heat Bed
; End of custom start GCode
G92 E0
G92 E0
G1 F2400 E-4
;LAYER_COUNT:19
;LAYER:0
M107
G0 F6000 X73.496 Y53.703 Z0.3
;TYPE:SKIRT
G1 F2400 E0
G1 F1200 X74.066 Y52.958 E0.0468
G1 X74.698 Y52.264 E0.09363
G1 X75.386 Y51.627 E0.14041
G1 X76.126 Y51.051 E0.18719
G1 X76.912 Y50.539 E0.23399
G1 X77.739 Y50.097 E0.28077
G1 X78.601 Y49.727 E0.32757
G1 X79.491 Y49.431 E0.37437
G1 X80.403 Y49.213 E0.42115
G1 X81.33 Y49.072 E0.46793
G1 X82.201 Y49.013 E0.51148
G1 X82.522 Y49.004 E0.5275
G1 X82.83 Y49 E0.54287
G1 X141.793 Y49 E3.48455
G1 X142.649 Y49.011 E3.52726
G1 X143.585 Y49.065 E3.57403
G1 X144.513 Y49.197 E3.62079
G1 X145.427 Y49.409 E3.6676
G1 X146.319 Y49.698 E3.71438
G1 X147.184 Y50.061 E3.76119
G1 X148.014 Y50.497 E3.80796
G1 X148.805 Y51.002 E3.85478
G1 X149.549 Y51.573 E3.90157
G1 X150.242 Y52.205 E3.94836
G1 X150.879 Y52.893 E3.99514
G1 X151.454 Y53.634 E4.04193
G1 X151.965 Y54.42 E4.08871
G1 X152.407 Y55.248 E4.13553
G1 X152.776 Y56.11 E4.18231
G1 X153.071 Y57 E4.22909
G1 X153.289 Y57.912 E4.27587
G1 X153.429 Y58.84 E4.32269
G1 X153.487 Y59.701 E4.36575
G1 X153.496 Y60.021 E4.38172
G1 X153.5 Y60.33 E4.39713
G1 X153.499 Y159.4 E9.33976
G1 X153.49 Y160.127 E9.37603
G1 X153.439 Y161.064 E9.42285
G1 X153.307 Y161.992 E9.46961
G1 X153.098 Y162.906 E9.51639
G1 X152.811 Y163.799 E9.56318
G1 X152.449 Y164.665 E9.61001
G1 X152.015 Y165.496 E9.65678
G1 X151.511 Y166.287 E9.70358
G1 X150.942 Y167.032 E9.75035
G1 X150.311 Y167.727 E9.79718
G1 X149.624 Y168.365 E9.84395
G1 X148.885 Y168.942 E9.89073
G1 X148.099 Y169.454 E9.93753
G1 X147.273 Y169.897 E9.98429
G1 X146.411 Y170.269 E10.03113
G1 X145.522 Y170.565 E10.07788
G1 X144.61 Y170.785 E10.12468
G1 X143.683 Y170.926 E10.17146
G1 X142.799 Y170.987 E10.21567
G1 X142.478 Y170.996 E10.23169
G1 X142.17 Y171 E10.24706
G1 X83.065 Y170.999 E13.19582
G1 X82.367 Y170.99 E13.23064
G1 X81.431 Y170.938 E13.27741
G1 X80.502 Y170.806 E13.32423
G1 X79.588 Y170.596 E13.37101
G1 X78.695 Y170.309 E13.41781
G1 X77.83 Y169.946 E13.46461
G1 X76.999 Y169.512 E13.51138
G1 X76.208 Y169.008 E13.55818
G1 X75.463 Y168.438 E13.60498
G1 X74.769 Y167.807 E13.65177
G1 X74.132 Y167.12 E13.69851
G1 X73.555 Y166.38 E13.74533
G1 X73.043 Y165.594 E13.79213
G1 X72.6 Y164.767 E13.83893
G1 X72.229 Y163.906 E13.88571
G1 X71.933 Y163.016 E13.9325
G1 X71.714 Y162.104 E13.97929
G1 X71.573 Y161.177 E14.02607
G1 X71.513 Y160.288 E14.07053
G1 X71.504 Y159.955 E14.08715
G1 X71.5 Y159.658 E14.10197
G1 X71.501 Y60.525 E19.04773
G1 X71.51 Y59.86 E19.08091
G1 X71.563 Y58.924 E19.12768
G1 X71.695 Y57.995 E19.1745
G1 X71.906 Y57.081 E19.2213
G1 X72.194 Y56.189 E19.26806
G1 X72.557 Y55.324 E19.31486
G1 X72.992 Y54.493 E19.36166
G1 X73.496 Y53.703 E19.40841
G0 F6000 X73.892 Y53.835
G1 F1200 X74.461 Y53.111 E19.45435
G1 X75.089 Y52.439 E19.50024
G1 X75.774 Y51.823 E19.5462
G1 X76.51 Y51.27 E19.59213
G1 X77.291 Y50.782 E19.63807
G1 X78.111 Y50.364 E19.68399
G1 X78.965 Y50.019 E19.72994
G1 X79.845 Y49.749 E19.77586
G1 X80.745 Y49.557 E19.82178
G1 X81.659 Y49.443 E19.86773
G1 X82.212 Y49.413 E19.89536
G1 X82.533 Y49.404 E19.91138
G1 X82.83 Y49.4 E19.9262
G1 X141.793 Y49.4 E22.86787
G1 X142.643 Y49.411 E22.91028
G1 X143.562 Y49.464 E22.95621
G1 X144.473 Y49.597 E23.00214
G1 X145.369 Y49.808 E23.04807
G1 X146.243 Y50.096 E23.09398
G1 X147.09 Y50.459 E23.13995
G1 X147.901 Y50.894 E23.18586
G1 X148.671 Y51.398 E23.23178
G1 X149.395 Y51.967 E23.27772
G1 X150.067 Y52.597 E23.32367
G1 X150.682 Y53.282 E23.3696
G1 X151.235 Y54.018 E23.41553
G1 X151.722 Y54.799 E23.46145
G1 X152.139 Y55.62 E23.50739
G1 X152.484 Y56.474 E23.55334
G1 X152.753 Y57.354 E23.59925
G1 X152.945 Y58.255 E23.64521
G1 X153.058 Y59.168 E23.69111
G1 X153.087 Y59.712 E23.71829
G1 X153.096 Y60.032 E23.73426
G1 X153.1 Y60.33 E23.74913
G1 X153.099 Y159.395 E28.6915
G1 X153.09 Y160.122 E28.72777
G1 X153.039 Y161.041 E28.77369
G1 X152.908 Y161.953 E28.81966
G1 X152.698 Y162.849 E28.86557
G1 X152.412 Y163.724 E28.9115
G1 X152.051 Y164.571 E28.95743
G1 X151.617 Y165.383 E29.00337
G1 X151.115 Y166.155 E29.04931
G1 X150.547 Y166.88 E29.09526
G1 X149.919 Y167.553 E29.14118
G1 X149.235 Y168.169 E29.18711
G1 X148.5 Y168.723 E29.23302
G1 X147.72 Y169.212 E29.27895
G1 X146.9 Y169.631 E29.3249
G1 X146.047 Y169.977 E29.37082
G1 X145.167 Y170.248 E29.41676
G1 X144.267 Y170.441 E29.46268
G1 X143.353 Y170.556 E29.50864
G1 X142.788 Y170.587 E29.53687
G1 X142.467 Y170.596 E29.55289
G1 X142.17 Y170.6 E29.56771
G1 X83.07 Y170.599 E32.51622
G1 X82.372 Y170.59 E32.55105
G1 X81.453 Y170.538 E32.59697
G1 X80.542 Y170.407 E32.64289
G1 X79.646 Y170.197 E32.6888
G1 X78.771 Y169.91 E32.73474
G1 X77.924 Y169.548 E32.7807
G1 X77.112 Y169.114 E32.82663
G1 X76.341 Y168.612 E32.87253
G1 X75.616 Y168.044 E32.91848
G1 X74.943 Y167.415 E32.96444
G1 X74.328 Y166.731 E33.01033
G1 X73.774 Y165.996 E33.05625
G1 X73.286 Y165.215 E33.10219
G1 X72.867 Y164.395 E33.14813
G1 X72.521 Y163.542 E33.19406
G1 X72.251 Y162.662 E33.23998
G1 X72.058 Y161.761 E33.28595
G1 X71.944 Y160.848 E33.33185
G1 X71.913 Y160.277 E33.36038
G1 X71.904 Y159.944 E33.377
G1 X71.9 Y159.658 E33.39127
G1 X71.901 Y60.531 E38.33674
G1 X71.91 Y59.866 E38.36992
G1 X71.962 Y58.946 E38.41589
G1 X72.094 Y58.035 E38.46182
G1 X72.305 Y57.139 E38.50774
G1 X72.592 Y56.264 E38.55368
G1 X72.955 Y55.418 E38.59961
G1 X73.389 Y54.606 E38.64555
G1 X73.892 Y53.835 E38.69147
G0 F6000 X74.288 Y53.971
G1 F1200 X74.855 Y53.267 E38.73657
G1 X75.481 Y52.617 E38.78159
G1 X76.162 Y52.024 E38.82664
G1 X76.894 Y51.494 E38.87173
G1 X77.669 Y51.031 E38.91677
G1 X78.482 Y50.638 E38.96182
G1 X79.327 Y50.318 E39.0069
G1 X80.196 Y50.075 E39.05192
G1 X81.084 Y49.909 E39.09699
G1 X82.223 Y49.813 E39.15401
G1 X82.544 Y49.804 E39.17004
G1 X82.83 Y49.8 E39.18431
G1 X141.793 Y49.8 E42.12598
G1 X142.637 Y49.811 E42.16809
G1 X143.539 Y49.864 E42.21317
G1 X144.432 Y49.996 E42.25821
G1 X145.31 Y50.207 E42.30326
G1 X146.166 Y50.495 E42.34832
G1 X146.993 Y50.857 E42.39335
G1 X147.785 Y51.292 E42.43844
G1 X148.536 Y51.794 E42.4835
G1 X149.239 Y52.361 E42.52856
G1 X149.889 Y52.988 E42.57362
G1 X150.481 Y53.67 E42.61867
G1 X151.011 Y54.401 E42.66372
G1 X151.473 Y55.177 E42.70878
G1 X151.866 Y55.99 E42.75383
G1 X152.184 Y56.835 E42.79887
G1 X152.427 Y57.705 E42.84394
G1 X152.592 Y58.593 E42.889
G1 X152.687 Y59.723 E42.94557
G1 X152.696 Y60.043 E42.96154
G1 X152.7 Y60.33 E42.97586
G1 X152.699 Y159.39 E47.91799
G1 X152.69 Y160.117 E47.95426
G1 X152.639 Y161.019 E47.99933
G1 X152.508 Y161.913 E48.04441
G1 X152.299 Y162.791 E48.08944
G1 X152.013 Y163.648 E48.13451
G1 X151.652 Y164.476 E48.17958
G1 X151.22 Y165.268 E48.22459
G1 X150.719 Y166.02 E48.26967
G1 X150.153 Y166.724 E48.31473
G1 X149.528 Y167.375 E48.35976
G1 X148.847 Y167.969 E48.40484
G1 X148.116 Y168.5 E48.44992
G1 X147.342 Y168.964 E48.49494
G1 X146.529 Y169.358 E48.54001
G1 X145.685 Y169.678 E48.58505
G1 X144.815 Y169.923 E48.63014
G1 X143.928 Y170.089 E48.67516
G1 X142.777 Y170.187 E48.73279
G1 X142.456 Y170.196 E48.74881
G1 X142.17 Y170.2 E48.76308
G1 X83.075 Y170.199 E51.71134
G1 X82.377 Y170.19 E51.74617
G1 X81.476 Y170.139 E51.79119
G1 X80.582 Y170.007 E51.83628
G1 X79.704 Y169.798 E51.88131
G1 X78.847 Y169.511 E51.92639
G1 X78.02 Y169.15 E51.97141
G1 X77.227 Y168.717 E52.01649
G1 X76.476 Y168.216 E52.06153
G1 X75.772 Y167.65 E52.1066
G1 X75.121 Y167.024 E52.15165
G1 X74.528 Y166.343 E52.19671
G1 X73.998 Y165.612 E52.24175
G1 X73.534 Y164.837 E52.28682
G1 X73.14 Y164.024 E52.33189
G1 X72.82 Y163.18 E52.37692
G1 X72.576 Y162.31 E52.422
G1 X72.41 Y161.422 E52.46707
G1 X72.313 Y160.267 E52.5249
G1 X72.304 Y159.934 E52.54152
G1 X72.3 Y159.658 E52.55529
G1 X72.301 Y60.536 E57.5005
G1 X72.31 Y59.871 E57.53368
G1 X72.362 Y58.969 E57.57876
G1 X72.494 Y58.076 E57.6238
G1 X72.704 Y57.198 E57.66884
G1 X72.991 Y56.341 E57.71393
G1 X73.353 Y55.514 E57.75896
G1 X73.786 Y54.722 E57.804
G1 X74.288 Y53.971 E57.84906
G1 F2400 E53.84906
;MESH:ultrasonic_tank_monitor.STL
G0 F6000 X101.747 Y145.631
G0 X101.106 Y143.869
G0 X100.411 Y145.865
G0 X100.411 Y146.399
G0 X100.595 Y146.904
G0 X101.93 Y148.345
;TYPE:WALL-INNER
G1 F2400 E57.84906
G1 F1200 X102.687 Y148.213 E57.8874
G1 X103.352 Y147.827 E57.92576
G1 X103.847 Y147.239 E57.96411
G1 X104.11 Y146.517 E58.00244
G1 X104.11 Y145.747 E58.04086
G1 X103.847 Y145.025 E58.0792
G1 X103.352 Y144.437 E58.11754
G1 X102.687 Y144.051 E58.1559
G1 X101.93 Y143.919 E58.19424
G1 X101.173 Y144.051 E58.23258
G1 X100.508 Y144.437 E58.27094
G1 X100.013 Y145.025 E58.30928
G1 X99.75 Y145.747 E58.34762
G1 X99.75 Y146.517 E58.38604
G1 X100.013 Y147.239 E58.42437
G1 X100.508 Y147.827 E58.46272
G1 X101.173 Y148.213 E58.50108
G1 X101.93 Y148.345 E58.53942
G0 F6000 X101.93 Y147.939
G1 F1200 X102.548 Y147.831 E58.57072
G1 X103.091 Y147.516 E58.60203
G1 X103.495 Y147.036 E58.63333
G1 X103.71 Y146.446 E58.66466
G1 X103.71 Y145.818 E58.69599
G1 X103.495 Y145.228 E58.72732
G1 X103.091 Y144.748 E58.75862
G1 X102.548 Y144.433 E58.78994
G1 X101.93 Y144.325 E58.82124
G1 X101.312 Y144.433 E58.85254
G1 X100.769 Y144.748 E58.88386
G1 X100.365 Y145.228 E58.91516
G1 X100.15 Y145.818 E58.94649
G1 X100.15 Y146.446 E58.97782
G1 X100.365 Y147.036 E59.00915
G1 X100.769 Y147.516 E59.04045
G1 X101.312 Y147.831 E59.07177
G1 X101.93 Y147.939 E59.10307
G0 F6000 X101.93 Y147.533
;TYPE:WALL-OUTER
G1 F1200 X102.409 Y147.449 E59.12733
G1 X102.83 Y147.205 E59.15161
G1 X103.143 Y146.833 E59.17586
G1 X103.31 Y146.375 E59.20018
G1 X103.31 Y145.889 E59.22443
G1 X103.143 Y145.431 E59.24875
G1 X102.83 Y145.059 E59.273
G1 X102.409 Y144.815 E59.29728
G1 X101.93 Y144.731 E59.32154
G1 X101.451 Y144.815 E59.34581
G1 X101.03 Y145.059 E59.37008
G1 X100.717 Y145.431 E59.39434
G1 X100.55 Y145.889 E59.41866
G1 X100.55 Y146.375 E59.4429
G1 X100.717 Y146.833 E59.46723
G1 X101.03 Y147.205 E59.49148
G1 X101.451 Y147.449 E59.51576
G1 X101.93 Y147.533 E59.54002
G0 F6000 X101.93 Y147.973
G1 F2400 E55.54002
G0 F6000 X102.821 Y147.379
G0 X104.301 Y145.713
G0 X109.073 Y145.432
G0 X110.19 Y145.637
;TYPE:WALL-INNER
G1 F2400 E59.54002
G1 F1200 X110.729 Y145.541 E59.56733
G1 X111.207 Y145.257 E59.59507
G1 X111.549 Y144.836 E59.62213
G1 X111.729 Y144.324 E59.64921
G1 X111.721 Y143.78 E59.67635
G1 X111.527 Y143.273 E59.70344
G1 X111.176 Y142.866 E59.73025
G1 X111.064 Y142.802 E59.73668
G1 X111.207 Y142.717 E59.73982
G1 X111.549 Y142.296 E59.76688
G1 X111.729 Y141.784 E59.79396
G1 X111.721 Y141.24 E59.8211
G1 X111.527 Y140.733 E59.84819
G1 X111.176 Y140.326 E59.875
G1 X111.064 Y140.262 E59.88144
G1 X111.207 Y140.177 E59.88457
G1 X111.549 Y139.756 E59.91164
G1 X111.729 Y139.244 E59.93871
G1 X111.721 Y138.7 E59.96586
G1 X111.527 Y138.193 E59.99294
G1 X111.176 Y137.786 E60.01975
G1 X111.064 Y137.722 E60.02619
G1 X111.207 Y137.637 E60.02933
G1 X111.549 Y137.216 E60.05639
G1 X111.729 Y136.704 E60.08346
G1 X111.721 Y136.16 E60.11061
G1 X111.527 Y135.653 E60.13769
G1 X111.176 Y135.246 E60.1645
G1 X110.716 Y134.984 E60.19091
G1 X110.182 Y134.891 E60.21796
G1 X109.643 Y134.987 E60.24527
G1 X109.165 Y135.271 E60.27301
G1 X108.823 Y135.692 E60.30007
G1 X108.643 Y136.204 E60.32715
G1 X108.651 Y136.748 E60.35429
G1 X108.845 Y137.255 E60.38137
G1 X109.196 Y137.662 E60.40819
G1 X109.308 Y137.726 E60.41462
G1 X109.165 Y137.811 E60.41776
G1 X108.823 Y138.232 E60.44482
G1 X108.643 Y138.744 E60.4719
G1 X108.651 Y139.288 E60.49904
G1 X108.845 Y139.795 E60.52612
G1 X109.196 Y140.202 E60.55294
G1 X109.308 Y140.266 E60.55937
G1 X109.165 Y140.351 E60.56251
G1 X108.823 Y140.772 E60.58957
G1 X108.643 Y141.284 E60.61665
G1 X108.651 Y141.828 E60.64379
G1 X108.845 Y142.335 E60.67088
G1 X109.196 Y142.742 E60.69769
G1 X109.308 Y142.806 E60.70412
G1 X109.165 Y142.891 E60.70726
G1 X108.823 Y143.312 E60.73432
G1 X108.643 Y143.824 E60.7614
G1 X108.651 Y144.368 E60.78854
G1 X108.845 Y144.875 E60.81563
G1 X109.196 Y145.282 E60.84244
G1 X109.656 Y145.544 E60.86885
G1 X110.19 Y145.637 E60.89589
G0 F6000 X110.189 Y145.231
G1 F1200 X110.587 Y145.16 E60.91606
G1 X110.942 Y144.949 E60.93667
G1 X111.195 Y144.638 E60.95667
G1 X111.328 Y144.259 E60.97671
G1 X111.322 Y143.857 E60.99676
G1 X111.178 Y143.481 E61.01685
G1 X110.918 Y143.179 E61.03673
G1 X110.579 Y142.986 E61.0562
G1 X110.183 Y142.917 E61.07625
G1 X109.785 Y142.988 E61.09642
G1 X109.43 Y143.199 E61.11702
G1 X109.177 Y143.51 E61.13702
G1 X109.044 Y143.889 E61.15706
G1 X109.05 Y144.291 E61.17712
G1 X109.194 Y144.667 E61.19721
G1 X109.454 Y144.969 E61.21709
G1 X109.793 Y145.162 E61.23655
G1 X110.189 Y145.231 E61.25661
G0 F6000 X110.188 Y144.825
;TYPE:WALL-OUTER
G1 F1200 X110.445 Y144.779 E61.26963
G1 X110.677 Y144.641 E61.2831
G1 X110.841 Y144.44 E61.29604
G1 X110.927 Y144.194 E61.30904
G1 X110.923 Y143.934 E61.32202
G1 X110.829 Y143.689 E61.33511
G1 X110.66 Y143.492 E61.34806
G1 X110.442 Y143.368 E61.36057
G1 X110.184 Y143.323 E61.37363
G1 X109.927 Y143.369 E61.38666
G1 X109.695 Y143.507 E61.40013
G1 X109.531 Y143.708 E61.41307
G1 X109.445 Y143.954 E61.42607
G1 X109.449 Y144.214 E61.43904
G1 X109.543 Y144.459 E61.45214
G1 X109.712 Y144.656 E61.46509
G1 X109.93 Y144.78 E61.4776
G1 X110.188 Y144.825 E61.49066
G0 F6000 X110.188 Y145.265
G0 X110.965 Y144.508
G0 X111.066 Y144.217
G0 X111.062 Y143.906
G0 X110.189 Y142.691
;TYPE:WALL-INNER
G1 F1200 X110.587 Y142.62 E61.50572
G1 X110.942 Y142.409 E61.52632
G1 X111.195 Y142.098 E61.54632
G1 X111.328 Y141.719 E61.56636
G1 X111.322 Y141.317 E61.58642
G1 X111.178 Y140.941 E61.60651
G1 X110.918 Y140.639 E61.62639
G1 X110.579 Y140.446 E61.64585
G1 X110.183 Y140.377 E61.6659
G1 X109.785 Y140.448 E61.68607
G1 X109.43 Y140.659 E61.70668
G1 X109.177 Y140.97 E61.72668
G1 X109.044 Y141.349 E61.74672
G1 X109.05 Y141.751 E61.76678
G1 X109.194 Y142.127 E61.78686
G1 X109.454 Y142.429 E61.80674
G1 X109.793 Y142.622 E61.82621
G1 X110.189 Y142.691 E61.84113
G0 F6000 X110.188 Y142.285
;TYPE:WALL-OUTER
G1 F1200 X110.445 Y142.239 E61.85416
G1 X110.677 Y142.101 E61.86763
G1 X110.841 Y141.9 E61.88057
G1 X110.927 Y141.654 E61.89357
G1 X110.923 Y141.394 E61.90654
G1 X110.829 Y141.149 E61.91964
G1 X110.66 Y140.952 E61.93259
G1 X110.442 Y140.828 E61.9451
G1 X110.184 Y140.783 E61.95816
G1 X109.927 Y140.829 E61.97119
G1 X109.695 Y140.967 E61.98466
G1 X109.531 Y141.168 E61.9976
G1 X109.445 Y141.414 E62.0106
G1 X109.449 Y141.674 E62.02357
G1 X109.543 Y141.919 E62.03667
G1 X109.712 Y142.116 E62.04961
G1 X109.93 Y142.24 E62.06213
G1 X110.188 Y142.285 E62.07519
G0 F6000 X110.188 Y142.725
G0 X110.965 Y141.968
G0 X111.066 Y141.677
G0 X111.062 Y141.366
G0 X110.189 Y140.151
;TYPE:WALL-INNER
G1 F1200 X110.587 Y140.08 E62.09025
G1 X110.942 Y139.869 E62.11085
G1 X111.195 Y139.558 E62.13085
G1 X111.328 Y139.179 E62.15089
G1 X111.322 Y138.777 E62.17095
G1 X111.178 Y138.401 E62.19104
G1 X110.918 Y138.099 E62.21092
G1 X110.579 Y137.906 E62.23038
G1 X110.183 Y137.837 E62.25043
G1 X109.785 Y137.908 E62.2706
G1 X109.43 Y138.119 E62.29121
G1 X109.177 Y138.43 E62.31121
G1 X109.044 Y138.809 E62.33125
G1 X109.05 Y139.211 E62.3513
G1 X109.194 Y139.587 E62.37139
G1 X109.454 Y139.889 E62.39127
G1 X109.793 Y140.082 E62.41073
G1 X110.189 Y140.151 E62.42566
G0 F6000 X110.188 Y139.745
;TYPE:WALL-OUTER
G1 F1200 X110.445 Y139.699 E62.43869
G1 X110.677 Y139.561 E62.45216
G1 X110.841 Y139.36 E62.4651
