;FLAVOR:Marlin
;TIME:4806
;Filament used: 3.70488m
;Layer height: 0.2
;MINX:71.465
;MINY:49
;MINZ:0.3
;MAXX:153.521
;MAXY:171
;MAXZ:1.5
;Generated with Cura_SteamEngine 4.12.1
M82 ;absolute extrusion mode
; Ender 3 Custom Start G-code



M140 S60 ; Set Heat Bed temperature
M190 S60 ; Wait for Heat Bed temperature
M104 S160; start warming extruder to 160
G28 ; Home all axes
;M420 S1 ; enable bed leveling

G29
G92 E0 ; Reset Extruder
M104 S210 ; Set Extruder temperature
G1 X0.1 Y20 Z1 F5000.0 ; Move to start position
M109 S210 ; Wait for Extruder temperature
; G1 Z1.0 F3000 ; Move Z Axis up little to prevent scratching of Heat Bed
G1 X0.1 Y200.0 Z0.35 F1500.0 E15 ; Draw the first line
G1 X0.4 Y200.0 Z0.35 F5000.0 ; Move to side a little
G1 X0.4 Y20 Z0.35 F1500.0 E30 ; Draw the second line
G92 E0 ; Reset Extruder
G1 Z2.0 F3000 ; Move Z Axis up little to prevent scratching of Heat Bed
; End of custom start GCode
G92 E0
G92 E0
G1 F2400 E-4
;LAYER_COUNT:7
;LAYER:0
M107
G0 F6000 X73.461 Y53.703 Z0.3
;TYPE:SKIRT
G1 F2400 E0
G1 F1200 X74.031 Y52.958 E0.0468
G1 X74.663 Y52.264 E0.09363
G1 X75.351 Y51.627 E0.14041
G1 X76.091 Y51.051 E0.18719
G1 X76.877 Y50.539 E0.23399
G1 X77.704 Y50.097 E0.28077
G1 X78.566 Y49.727 E0.32757
G1 X79.456 Y49.431 E0.37437
G1 X80.368 Y49.213 E0.42115
G1 X81.295 Y49.072 E0.46793
G1 X82.166 Y49.013 E0.51148
G1 X82.487 Y49.004 E0.5275
G1 X82.795 Y49 E0.54287
G1 X141.646 Y49 E3.47896
G1 X142.505 Y49.011 E3.52182
G1 X143.442 Y49.064 E3.56864
G1 X144.37 Y49.197 E3.61541
G1 X145.284 Y49.409 E3.66222
G1 X146.176 Y49.697 E3.70898
G1 X147.041 Y50.061 E3.75581
G1 X147.871 Y50.497 E3.80258
G1 X148.662 Y51.002 E3.8494
G1 X149.406 Y51.572 E3.89616
G1 X150.099 Y52.204 E3.94295
G1 X150.736 Y52.892 E3.98973
G1 X151.312 Y53.633 E4.03655
G1 X151.822 Y54.419 E4.0833
G1 X152.264 Y55.247 E4.13012
G1 X152.634 Y56.109 E4.17692
G1 X152.864 Y56.779 E4.21227
G1 X152.919 Y56.958 E4.22161
G1 X153.156 Y57.866 E4.26843
G1 X153.315 Y58.79 E4.3152
G1 X153.403 Y60.052 E4.37832
G1 X153.409 Y60.589 E4.40511
G1 X153.408 Y102.631 E6.50259
G1 X153.398 Y103.329 E6.53742
G1 X153.372 Y103.934 E6.56763
G1 X153.33 Y104.524 E6.59714
G1 X153.174 Y106.357 E6.68892
G1 X153.032 Y108.863 E6.81415
G1 X152.96 Y111.358 E6.93867
G1 X152.96 Y113.883 E7.06465
G1 X153.031 Y116.434 E7.19197
G1 X153.171 Y118.894 E7.31489
G1 X153.39 Y121.476 E7.44417
G1 X153.444 Y121.985 E7.46971
G1 X153.482 Y122.4 E7.4905
G1 X153.521 Y123.67 E7.55389
G1 X153.5 Y124.44 E7.59232
G1 X153.465 Y127.003 E7.7202
G1 X153.464 Y159.43 E9.33799
G1 X153.453 Y160.157 E9.37427
G1 X153.399 Y161.094 E9.42109
G1 X153.265 Y162.022 E9.46787
G1 X153.053 Y162.936 E9.51468
G1 X152.763 Y163.828 E9.56147
G1 X152.399 Y164.692 E9.60825
G1 X151.962 Y165.522 E9.65505
G1 X151.457 Y166.312 E9.70182
G1 X150.885 Y167.056 E9.74864
G1 X150.253 Y167.748 E9.7954
G1 X149.564 Y168.384 E9.84218
G1 X148.823 Y168.96 E9.889
G1 X148.036 Y169.469 E9.93576
G1 X147.208 Y169.911 E9.98259
G1 X146.346 Y170.279 E10.02935
G1 X145.455 Y170.574 E10.07618
G1 X144.543 Y170.791 E10.12295
G1 X143.616 Y170.93 E10.16971
G1 X142.764 Y170.987 E10.21231
G1 X142.445 Y170.996 E10.22823
G1 X142.135 Y171 E10.2437
G1 X83.03 Y170.999 E13.19246
G1 X82.332 Y170.99 E13.22729
G1 X81.396 Y170.938 E13.27406
G1 X80.467 Y170.806 E13.32087
G1 X79.553 Y170.596 E13.36766
G1 X78.66 Y170.309 E13.41445
G1 X77.795 Y169.946 E13.46126
G1 X76.964 Y169.512 E13.50803
G1 X76.173 Y169.008 E13.55482
G1 X75.428 Y168.438 E13.60162
G1 X74.734 Y167.807 E13.64842
G1 X74.097 Y167.12 E13.69516
G1 X73.52 Y166.38 E13.74197
G1 X73.008 Y165.594 E13.78877
G1 X72.565 Y164.767 E13.83558
G1 X72.194 Y163.906 E13.88235
G1 X71.898 Y163.016 E13.92914
G1 X71.679 Y162.104 E13.97594
G1 X71.538 Y161.177 E14.02272
G1 X71.478 Y160.288 E14.06717
G1 X71.469 Y159.955 E14.08379
G1 X71.465 Y159.658 E14.09861
G1 X71.466 Y60.525 E19.04437
G1 X71.475 Y59.86 E19.07756
G1 X71.528 Y58.924 E19.12433
G1 X71.66 Y57.995 E19.17114
G1 X71.871 Y57.081 E19.21794
G1 X72.159 Y56.189 E19.2647
G1 X72.522 Y55.324 E19.3115
G1 X72.957 Y54.493 E19.3583
G1 X73.461 Y53.703 E19.40505
G0 F6000 X73.857 Y53.835
G1 F1200 X74.426 Y53.111 E19.45099
G1 X75.054 Y52.439 E19.49688
G1 X75.739 Y51.823 E19.54284
G1 X76.475 Y51.27 E19.58877
G1 X77.256 Y50.782 E19.63471
G1 X78.076 Y50.364 E19.68063
G1 X78.93 Y50.019 E19.72658
G1 X79.81 Y49.749 E19.77251
G1 X80.71 Y49.557 E19.81842
G1 X81.624 Y49.443 E19.86437
G1 X82.177 Y49.413 E19.892
G1 X82.498 Y49.404 E19.90802
G1 X82.795 Y49.4 E19.92284
G1 X141.646 Y49.4 E22.85893
G1 X142.5 Y49.411 E22.90154
G1 X143.419 Y49.464 E22.94747
G1 X144.33 Y49.597 E22.9934
G1 X145.226 Y49.808 E23.03932
G1 X146.1 Y50.096 E23.08523
G1 X146.947 Y50.459 E23.13121
G1 X147.758 Y50.894 E23.17712
G1 X148.529 Y51.398 E23.22307
G1 X149.253 Y51.966 E23.26898
G1 X149.925 Y52.596 E23.31494
G1 X150.539 Y53.281 E23.36083
G1 X151.092 Y54.017 E23.40676
G1 X151.579 Y54.798 E23.45268
G1 X151.997 Y55.619 E23.49864
G1 X152.481 Y56.897 E23.56682
G1 X152.536 Y57.076 E23.57617
G1 X152.768 Y57.967 E23.6221
G1 X152.922 Y58.874 E23.668
G1 X153.003 Y60.057 E23.72716
G1 X153.009 Y60.589 E23.7537
G1 X153.008 Y102.625 E25.85088
G1 X152.998 Y103.323 E25.88571
G1 X152.973 Y103.906 E25.91482
G1 X152.932 Y104.49 E25.94403
G1 X152.775 Y106.334 E26.03636
G1 X152.633 Y108.83 E26.16109
G1 X152.56 Y111.382 E26.28846
G1 X152.56 Y113.894 E26.41379
G1 X152.631 Y116.432 E26.54046
G1 X152.774 Y118.952 E26.66638
G1 X152.991 Y121.509 E26.79441
G1 X153.065 Y122.22 E26.83007
G1 X153.084 Y122.435 E26.84084
G1 X153.121 Y123.659 E26.90193
G1 X153.1 Y124.424 E26.94012
G1 X153.065 Y126.997 E27.06849
G1 X153.064 Y159.424 E28.68628
G1 X153.053 Y160.151 E28.72256
G1 X152.999 Y161.07 E28.76849
G1 X152.865 Y161.981 E28.81443
G1 X152.653 Y162.877 E28.86036
G1 X152.365 Y163.751 E28.90627
G1 X152.001 Y164.597 E28.95222
G1 X151.565 Y165.408 E28.99816
G1 X151.061 Y166.178 E29.04407
G1 X150.491 Y166.902 E29.09004
G1 X149.861 Y167.573 E29.13596
G1 X149.176 Y168.187 E29.18186
G1 X148.439 Y168.74 E29.22782
G1 X147.657 Y169.226 E29.27376
G1 X146.836 Y169.643 E29.3197
G1 X145.982 Y169.987 E29.36563
G1 X145.102 Y170.255 E29.41153
G1 X144.201 Y170.446 E29.45748
G1 X143.287 Y170.558 E29.50342
G1 X142.753 Y170.587 E29.5301
G1 X142.434 Y170.596 E29.54602
G1 X142.135 Y170.6 E29.56094
G1 X83.035 Y170.599 E32.50945
G1 X82.337 Y170.59 E32.54427
G1 X81.418 Y170.538 E32.5902
G1 X80.507 Y170.407 E32.63611
G1 X79.611 Y170.197 E32.68203
G1 X78.736 Y169.91 E32.72797
G1 X77.889 Y169.548 E32.77392
G1 X77.077 Y169.114 E32.81986
G1 X76.306 Y168.612 E32.86576
G1 X75.581 Y168.044 E32.91171
G1 X74.908 Y167.415 E32.95767
G1 X74.293 Y166.731 E33.00356
G1 X73.739 Y165.996 E33.04948
G1 X73.251 Y165.215 E33.09542
G1 X72.832 Y164.395 E33.14136
G1 X72.486 Y163.542 E33.18729
G1 X72.216 Y162.662 E33.23321
G1 X72.023 Y161.761 E33.27918
G1 X71.909 Y160.848 E33.32508
G1 X71.878 Y160.277 E33.35361
G1 X71.869 Y159.944 E33.37023
G1 X71.865 Y159.658 E33.3845
G1 X71.866 Y60.531 E38.32997
G1 X71.875 Y59.866 E38.36315
G1 X71.927 Y58.946 E38.40912
G1 X72.059 Y58.035 E38.45505
G1 X72.27 Y57.139 E38.50097
G1 X72.557 Y56.264 E38.54691
G1 X72.92 Y55.418 E38.59284
G1 X73.354 Y54.606 E38.63877
G1 X73.857 Y53.835 E38.6847
G0 F6000 X74.253 Y53.971
G1 F1200 X74.82 Y53.267 E38.7298
G1 X75.446 Y52.617 E38.77482
G1 X76.127 Y52.024 E38.81987
G1 X76.859 Y51.494 E38.86496
G1 X77.634 Y51.031 E38.91
G1 X78.447 Y50.638 E38.95505
G1 X79.292 Y50.318 E39.00013
G1 X80.161 Y50.075 E39.04515
G1 X81.049 Y49.909 E39.09022
G1 X82.188 Y49.813 E39.14724
G1 X82.509 Y49.804 E39.16326
G1 X82.795 Y49.8 E39.17753
G1 X141.646 Y49.8 E42.11362
G1 X142.494 Y49.811 E42.15593
G1 X143.396 Y49.864 E42.20101
G1 X144.289 Y49.996 E42.24605
G1 X145.167 Y50.207 E42.2911
G1 X146.023 Y50.495 E42.33616
G1 X146.85 Y50.857 E42.3812
G1 X147.642 Y51.291 E42.42625
G1 X148.393 Y51.793 E42.47132
G1 X149.096 Y52.36 E42.51638
G1 X149.746 Y52.987 E42.56144
G1 X150.338 Y53.669 E42.60649
G1 X150.868 Y54.4 E42.65154
G1 X151.331 Y55.176 E42.69662
G1 X151.723 Y55.989 E42.74165
G1 X152.099 Y57.014 E42.79612
G1 X152.154 Y57.193 E42.80546
G1 X152.381 Y58.067 E42.85051
G1 X152.529 Y58.958 E42.89557
G1 X152.603 Y60.062 E42.95078
G1 X152.609 Y60.589 E42.97707
G1 X152.608 Y102.619 E45.07395
G1 X152.598 Y103.317 E45.10878
G1 X152.574 Y103.879 E45.13685
G1 X152.533 Y104.456 E45.1657
G1 X152.377 Y106.278 E45.25694
G1 X152.233 Y108.831 E45.38451
G1 X152.16 Y111.37 E45.51123
G1 X152.16 Y113.905 E45.6377
G1 X152.231 Y116.432 E45.76383
G1 X152.375 Y118.973 E45.8908
G1 X152.596 Y121.581 E46.02138
G1 X152.666 Y122.255 E46.05519
G1 X152.685 Y122.47 E46.06596
G1 X152.721 Y123.648 E46.12475
G1 X152.7 Y124.407 E46.16264
G1 X152.665 Y126.992 E46.29161
G1 X152.664 Y159.418 E47.90935
G1 X152.653 Y160.145 E47.94563
G1 X152.599 Y161.047 E47.99071
G1 X152.466 Y161.94 E48.03575
G1 X152.254 Y162.818 E48.08082
G1 X151.966 Y163.674 E48.12587
G1 X151.603 Y164.501 E48.17093
G1 X151.168 Y165.292 E48.21597
G1 X150.665 Y166.042 E48.26102
G1 X150.098 Y166.745 E48.30608
G1 X149.47 Y167.395 E48.35117
G1 X148.788 Y167.986 E48.3962
G1 X148.056 Y168.515 E48.44125
G1 X147.28 Y168.977 E48.48631
G1 X146.466 Y169.369 E48.53139
G1 X145.621 Y169.687 E48.57643
G1 X144.751 Y169.929 E48.62148
G1 X143.863 Y170.093 E48.66653
G1 X142.742 Y170.187 E48.72266
G1 X142.423 Y170.196 E48.73858
G1 X142.135 Y170.2 E48.75295
G1 X83.04 Y170.199 E51.70121
G1 X82.342 Y170.19 E51.73604
G1 X81.441 Y170.139 E51.78106
G1 X80.547 Y170.007 E51.82614
G1 X79.669 Y169.798 E51.87117
G1 X78.812 Y169.511 E51.91626
G1 X77.985 Y169.15 E51.96128
G1 X77.192 Y168.717 E52.00636
G1 X76.441 Y168.216 E52.0514
G1 X75.737 Y167.65 E52.09646
G1 X75.086 Y167.024 E52.14152
G1 X74.493 Y166.343 E52.18657
G1 X73.963 Y165.612 E52.23162
G1 X73.499 Y164.837 E52.27668
G1 X73.105 Y164.024 E52.32176
G1 X72.785 Y163.18 E52.36679
G1 X72.541 Y162.31 E52.41187
G1 X72.375 Y161.422 E52.45694
G1 X72.278 Y160.267 E52.51476
G1 X72.269 Y159.934 E52.53138
G1 X72.265 Y159.658 E52.54515
G1 X72.266 Y60.536 E57.49037
G1 X72.275 Y59.871 E57.52355
G1 X72.327 Y58.969 E57.56863
G1 X72.459 Y58.076 E57.61366
G1 X72.669 Y57.198 E57.6587
G1 X72.956 Y56.341 E57.70379
G1 X73.318 Y55.514 E57.74883
G1 X73.751 Y54.722 E57.79386
G1 X74.253 Y53.971 E57.83893
G1 F2400 E53.83893
;MESH:ultrasonic_tank_monitor - Board.step-1 Open CASCADE STEP translator 6.8 1.1.1.step-1.STL
G0 F6000 X81.8 Y61.315
G0 X83.697 Y61.315
G0 X83.969 Y63.543
G0 X84.245 Y64.019
G0 X84.668 Y64.376
G0 X86.677 Y65.102
G0 X87.324 Y61.442
G0 X87.112 Y61.195
G0 X137.817 Y61.195
G0 X137.905 Y64.859
G0 X141.214 Y64.703
G0 X141.218 Y90.893
G0 X138.851 Y91.091
G0 X130.984 Y91.413
G0 X132.503 Y93.994
G0 X133.774 Y93.425
G0 X138.855 Y93.426
G0 X141.218 Y93.619
G0 X141.207 Y99.537
G0 X120.57 Y99.795
G0 X122.094 Y102.376
G0 X123.361 Y101.808
G0 X133.521 Y101.808
G0 X135.128 Y102.331
G0 X135.131 Y124.555
G0 X141.283 Y124.555
G0 X141.268 Y129.834
G0 X133.516 Y129.698
G0 X134.256 Y132.336
;TYPE:WALL-INNER
G1 F2400 E57.83893
G1 F1200 X134.793 Y132.429 E57.86612
G1 X135.333 Y132.333 E57.89348
G1 X135.809 Y132.047 E57.92119
G1 X136.056 Y131.747 E57.94057
G1 X136.34 Y132.074 E57.96218
G1 X136.796 Y132.336 E57.98842
G1 X137.333 Y132.429 E58.01561
G1 X137.873 Y132.333 E58.04297
G1 X138.349 Y132.047 E58.07068
G1 X138.596 Y131.747 E58.09007
G1 X138.88 Y132.074 E58.11167
G1 X139.336 Y132.336 E58.13791
G1 X139.869 Y132.429 E58.1649
G1 X140.412 Y132.333 E58.19241
G1 X140.889 Y132.047 E58.22016
G1 X141.235 Y131.626 E58.24735
G1 X141.411 Y131.114 E58.27436
G1 X141.403 Y130.574 E58.3013
G1 X141.211 Y130.066 E58.3284
G1 X140.857 Y129.658 E58.35535
G1 X140.401 Y129.396 E58.38158
G1 X139.864 Y129.303 E58.40877
G1 X139.324 Y129.399 E58.43614
G1 X138.848 Y129.685 E58.46384
G1 X138.601 Y129.985 E58.48323
G1 X138.317 Y129.658 E58.50484
G1 X137.861 Y129.396 E58.53108
G1 X137.328 Y129.303 E58.55807
G1 X136.785 Y129.399 E58.58558
G1 X136.309 Y129.682 E58.61321
G1 X136.061 Y129.985 E58.63274
G1 X135.777 Y129.658 E58.65435
G1 X135.321 Y129.396 E58.68059
G1 X134.788 Y129.303 E58.70758
G1 X134.245 Y129.399 E58.73509
G1 X133.769 Y129.682 E58.76272
G1 X133.521 Y129.985 E58.78225
G1 X133.237 Y129.658 E58.80386
G1 X132.781 Y129.396 E58.8301
G1 X132.248 Y129.303 E58.85709
G1 X131.705 Y129.399 E58.8846
G1 X131.228 Y129.685 E58.91235
G1 X130.981 Y129.985 E58.93174
G1 X130.697 Y129.658 E58.95335
G1 X130.241 Y129.396 E58.97958
G1 X129.704 Y129.303 E59.00677
G1 X129.165 Y129.399 E59.03409
G1 X128.689 Y129.682 E59.06171
G1 X128.441 Y129.985 E59.08125
G1 X128.157 Y129.658 E59.10286
G1 X127.701 Y129.396 E59.1291
G1 X127.168 Y129.303 E59.15609
G1 X126.625 Y129.399 E59.1836
G1 X126.149 Y129.682 E59.21123
G1 X125.901 Y129.985 E59.23076
G1 X125.617 Y129.658 E59.25237
G1 X125.161 Y129.396 E59.27861
G1 X124.628 Y129.303 E59.3056
G1 X124.085 Y129.399 E59.33311
G1 X123.609 Y129.682 E59.36074
G1 X123.361 Y129.985 E59.38027
G1 X123.077 Y129.658 E59.40188
G1 X122.621 Y129.396 E59.42812
G1 X122.088 Y129.303 E59.45511
G1 X121.545 Y129.399 E59.48262
G1 X121.068 Y129.685 E59.51037
G1 X120.722 Y130.106 E59.53756
G1 X120.546 Y130.618 E59.56457
G1 X120.554 Y131.158 E59.59151
G1 X120.746 Y131.666 E59.61861
G1 X121.1 Y132.074 E59.64555
G1 X121.556 Y132.336 E59.67179
G1 X122.093 Y132.429 E59.69898
G1 X122.632 Y132.333 E59.7263
G1 X123.108 Y132.05 E59.75392
G1 X123.356 Y131.747 E59.77346
G1 X123.64 Y132.074 E59.79507
G1 X124.096 Y132.336 E59.8213
G1 X124.633 Y132.429 E59.84849
G1 X125.172 Y132.333 E59.87581
G1 X125.648 Y132.05 E59.90344
G1 X125.896 Y131.747 E59.92297
G1 X126.18 Y132.074 E59.94458
G1 X126.636 Y132.336 E59.97082
G1 X127.173 Y132.429 E59.99801
G1 X127.713 Y132.333 E60.02537
G1 X128.189 Y132.047 E60.05307
G1 X128.436 Y131.747 E60.07246
G1 X128.72 Y132.074 E60.09407
G1 X129.176 Y132.336 E60.12031
G1 X129.709 Y132.429 E60.1473
G1 X130.252 Y132.333 E60.17481
G1 X130.728 Y132.05 E60.20244
G1 X130.976 Y131.747 E60.22197
G1 X131.26 Y132.074 E60.24358
G1 X131.716 Y132.336 E60.26982
G1 X132.253 Y132.429 E60.29701
G1 X132.792 Y132.333 E60.32432
G1 X133.268 Y132.05 E60.35195
G1 X133.516 Y131.747 E60.37149
G1 X133.8 Y132.074 E60.39309
G1 X134.256 Y132.336 E60.41933
G0 F6000 X134.394 Y131.954
G1 F1200 X134.792 Y132.023 E60.43948
G1 X135.19 Y131.952 E60.45965
G1 X135.544 Y131.74 E60.48024
G1 X135.8 Y131.428 E60.50037
G1 X135.93 Y131.051 E60.52027
G1 X135.924 Y130.649 E60.54033
G1 X135.782 Y130.274 E60.56033
G1 X135.519 Y129.971 E60.58035
G1 X135.183 Y129.778 E60.59968
G1 X134.788 Y129.709 E60.61969
G1 X134.387 Y129.78 E60.64
G1 X134.034 Y129.99 E60.6605
G1 X133.777 Y130.304 E60.68074
G1 X133.647 Y130.681 E60.70063
G1 X133.653 Y131.083 E60.72069
G1 X133.795 Y131.458 E60.7407
G1 X134.058 Y131.761 E60.76071
G1 X134.394 Y131.954 E60.78005
G0 F6000 X134.532 Y131.572
;TYPE:WALL-OUTER
G1 F1200 X134.791 Y131.617 E60.79316
G1 X135.048 Y131.571 E60.80619
G1 X135.279 Y131.433 E60.81961
G1 X135.445 Y131.23 E60.83269
G1 X135.529 Y130.987 E60.84552
G1 X135.525 Y130.725 E60.85859
G1 X135.433 Y130.482 E60.87156
G1 X135.261 Y130.284 E60.88464
G1 X135.045 Y130.16 E60.89707
G1 X134.788 Y130.115 E60.91009
G1 X134.529 Y130.161 E60.92321
G1 X134.299 Y130.298 E60.93657
G1 X134.132 Y130.502 E60.94972
G1 X134.048 Y130.745 E60.96255
G1 X134.052 Y131.007 E60.97562
G1 X134.144 Y131.25 E60.98858
G1 X134.316 Y131.448 E61.00167
G1 X134.532 Y131.572 E61.01409
G0 F6000 X134.383 Y131.985
G0 X136.934 Y131.954
;TYPE:WALL-INNER
G1 F1200 X137.332 Y132.023 E61.03424
G1 X137.73 Y131.952 E61.05441
G1 X138.084 Y131.74 E61.075
G1 X138.34 Y131.428 E61.09514
G1 X138.47 Y131.05 E61.11508
G1 X138.464 Y130.65 E61.13504
G1 X138.322 Y130.274 E61.15509
G1 X138.059 Y129.971 E61.1751
G1 X137.723 Y129.778 E61.19444
G1 X137.328 Y129.709 E61.21444
G1 X136.927 Y129.78 E61.23476
G1 X136.574 Y129.99 E61.25525
G1 X136.317 Y130.304 E61.27549
G1 X136.187 Y130.681 E61.29539
G1 X136.193 Y131.083 E61.30927
G1 X136.335 Y131.458 E61.32927
G1 X136.598 Y131.761 E61.34929
G1 X136.934 Y131.954 E61.36862
G0 F6000 X137.072 Y131.572
;TYPE:WALL-OUTER
G1 F1200 X137.331 Y131.617 E61.38174
G1 X137.588 Y131.571 E61.39476
G1 X137.819 Y131.433 E61.40819
